symbols/web/car_repair/materialsymbolsrounded/car_repair_wght700_20px.svg

<svg xmlns="http://www.w3.org/2000/svg" height="20" width="20"><path d="M9.979 19.604q-.541 0-.948-.406-.406-.406-.406-.948v-1.688H4.042q-.542 0-.948-.406-.406-.406-.406-.948 0-.541.406-.948.406-.406.948-.406h11.916q.542 0 .948.406.406.407.406.948 0 .542-.406.948-.406.406-.948.406h-4.625v1.688q0 .542-.406.948-.406.406-.948.406Zm-2.646-10.5q.375 0 .636-.26.26-.261.26-.615t-.26-.614q-.261-.261-.636-.261-.354 0-.604.261-.25.26-.25.614t.25.615q.25.26.604.26Zm5.334 0q.354 0 .614-.26.261-.261.261-.615t-.261-.614q-.26-.261-.614-.261-.355 0-.615.261-.26.26-.26.614t.26.615q.26.26.615.26Zm-7.625 3.938q-.604 0-1.063-.459-.458-.458-.458-1.062V6.5l1.354-4.375q.167-.542.635-.885.469-.344 1.052-.344h6.834q.583 0 1.042.312.458.313.624.854L16.479 6.5v5.021q0 .604-.458 1.062-.459.459-1.063.459-.604 0-1.062-.459-.458-.458-.458-1.062v.521H6.562v-.521q0 .604-.458 1.062-.458.459-1.062.459Zm1.437-7.98h7.042L13 3.292H7Zm-.562 1.75v2.834Zm0 2.834h8.166V6.812H5.917Z"/></svg>

<svg xmlns="http://www.w3.org/2000/svg" height="20" width="20"><path d="M9.979 19.604Q9.438 19.604 9.031 19.198Q8.625 18.792 8.625 18.25V16.562H4.042Q3.5 16.562 3.094 16.156Q2.688 15.75 2.688 15.208Q2.688 14.667 3.094 14.26Q3.5 13.854 4.042 13.854H15.958Q16.5 13.854 16.906 14.26Q17.312 14.667 17.312 15.208Q17.312 15.75 16.906 16.156Q16.5 16.562 15.958 16.562H11.333V18.25Q11.333 18.792 10.927 19.198Q10.521 19.604 9.979 19.604ZM7.333 9.104Q7.708 9.104 7.969 8.844Q8.229 8.583 8.229 8.229Q8.229 7.875 7.969 7.615Q7.708 7.354 7.333 7.354Q6.979 7.354 6.729 7.615Q6.479 7.875 6.479 8.229Q6.479 8.583 6.729 8.844Q6.979 9.104 7.333 9.104ZM12.667 9.104Q13.021 9.104 13.281 8.844Q13.542 8.583 13.542 8.229Q13.542 7.875 13.281 7.615Q13.021 7.354 12.667 7.354Q12.312 7.354 12.052 7.615Q11.792 7.875 11.792 8.229Q11.792 8.583 12.052 8.844Q12.312 9.104 12.667 9.104ZM5.042 13.042Q4.438 13.042 3.979 12.583Q3.521 12.125 3.521 11.521V6.5L4.875 2.125Q5.042 1.583 5.51 1.24Q5.979 0.896 6.562 0.896H13.396Q13.979 0.896 14.438 1.208Q14.896 1.521 15.062 2.062L16.479 6.5V11.521Q16.479 12.125 16.021 12.583Q15.562 13.042 14.958 13.042Q14.354 13.042 13.896 12.583Q13.438 12.125 13.438 11.521V12.042H6.562V11.521Q6.562 12.125 6.104 12.583Q5.646 13.042 5.042 13.042ZM6.479 5.062H13.521L13 3.292H7ZM5.917 6.812V9.646ZM5.917 9.646H14.083V6.812H5.917Z"/></svg>
